X: 1596
T: the Slipper Hornpipe   #2
R: hornpipe
%S: s:3 b:14(4+5+5)
B: O'Neill's 1850 #1596
O: Dillon
Z: Transcribed by Michael D. Long, 9/30/98
Z: Transcribed by Michael Hogan
Z: Compacted via repeats and multiple endings [JC]
M: C|
L: 1/8
K: D
(3(ABc) |: d>f (3(edc) d>AB>G | F>dE>d D2d2 |1 c>eA>d c>de>f | g>ef>d (3(cBA) B>c :|
[2 (3(cBA) B>c d>fe>c | d2d>d d2 :: e>c | A>ce>c A>ce>c | A>df>d A>df>d | B>ge>d c>de>f |
g>ef>d (3(cBA) B>c || d>f (3(edc) d>AB>G | F>dE>d D2d2 | (3(cBA) B>c d>fe>c | d2d>d d2 :|
